X:201
T:New Roundabout, The
R:polka
M:2/4
L:1/8
K:Dmaj
|:A|de fg|ab/a/ fa|ga/g/ fe|df A2|
de fg|ab/a/ fa|ga/g/ fe|d2 d:|
|:f|e>e fe|df Af|e>e fe|dB BA|
e>e fe|df Af|ga/g/ fe|d2 d:|

